X: 28736
T: My Friend Buddy
R: jig
M: 6/8
K: Dmajor
|:A|D>ED DEF|ABA AFE|D>ED DEF|ded d2 f|
D>ED D2 F|ABA AFD|E>FE EFA|B3 d2:|
|:g|f>ed dAF|DED D2 g|f>ed dcd|efd e2 g|
[1 f>ed dAF|DED D2 F|E>FE EF/G/A|B3 d2:|
[2 fdf ec/d/e|dcB A2 D|E>FE EFA|B3 d2||

